X: 297
T: Bestenigâr Sazsemâîsi
C: Tanburî Cemil Bey
O: Turkey
F: http://compmusic.upf.edu/node/140
N: bestenigar--sazsemaisi--aksaksemai----tanburi_cemil_bey
N: makam= bestenigar
N: form= sazsemaisi
N: usul= aksaksemai = 10/8
M: 10/8
L: 1/16
K: C _2/4B _3/4d  
Q: 1/4=144
%%MIDI tuningsystem comma53
^F4 d2c4BA B2cd c2B2  | A3B AG^F4ed cBc6  | \
w:  1. HANE  |   | 
cdc2 d2e4f2 g2ef efed  | 
w:   | 
c3e dcc3BcB BAA6  | =d4 d2d3cgf edcd cdcB  | 
w:   |  TESLİM  | 
B4 B2BA GABc AcB6  | A2B2 c2ed c_1/4BA_2/4B AG^FG ABcB  | 
w:   |   | 
A4 G^F{d}c2 BAAG GFF6  | ^3/4F4 A2G4A2 B2AG ^F^EF2  | 
w:   |  2. HANE  | 
BAG^F E2FG F2GA GBA6  | A4 G2A3GA2 B2c2 d2cB  | 
w:   |   | 
c2d2 e2ce dccB BAA6  | =d4 d2d3cgf edcd cdcB  | 
w:   |  TESLİM  | 
B4 B2BA GABc AcB6  | A2B2 c2ed c_1/4BA_2/4B AG^FG ABcB  | 
w:   |   | 
A4 G^F{d}c2 BAAG GFF6  | ^f4 g2gf f^ee=d def6  | 
w:   |  3. HANE  | 
a2g2 ^f2^e2 =d2d2 efed ^c^Bc2  | ^c4 =d2^e3de2 ^f2g4f2  | 
w:   |   | 
a2g2 ^f2^e2 f2g/f/g/a/ gff6  | a4 g^fg3abc' baa4{b}ag  | 
w:   |   | 
g4 g^ff3ef2 g2ag fe=d2  | c2d2 e2fe f_7/8ag2 f2e2 d2e2  | 
w:   |   | 
c4 dedc cdcB BAA6  | =d4 d2d3cgf edcd cdcB  | 
w:   |  TESLİM  | 
B4 B2BA GABc AcB6  | A2B2 c2ed c_1/4BA_2/4B AG^FG ABcB  | 
w:   |   | 
A4 G^F{d}c2 BAAG GFF6  | z24  | =D4^F4F3^ED2E2F8  | \
w:   |  |  4. HANE  | 
^F2G2A2B2c2d2c2e2d3cB2c2  | 
w:   | 
B4c4c4c2d2c2B2A2G2  | A3Bc3BA3G^F2B2AGF^9/8EF4  | 
w:   |   | 
=D4^F4F3^ED2E2F8  | ^F2G2A2B2c2d2c2e2d3cB2c2  | \
w:   |   | 
B4c8g2_7/8a2g3fe2g2  | 
w:   | 
e4f4f4fgfef8  | f8f4fgfef8  | e2f2g2_7/8a2c'3ba2g2f3ed4  | 
w:   |   |   | 
c4g2_7/8a2g2f2{g}f2e2e2d2{e}d2c2  | \
w:   | 
c6_7/8a2g2f2e2g2f8  | f8f4fgfef8  | 
w:   |   | 
e2f2g2_7/8a2c'3ba2g2f3ed4  | c4g2_7/8a2g2f2{g}f2e2e2d2{e}d2c2  | 
w:   |   | 
c6f2e2=d2c2e2d8  | z20  | =d4 d2d3cgf edcd cdcB  | 
w:   |  |  TESLİM  | 
B4 B2BA GABc AcB6  | A2B2 c2ed c_1/4BA_2/4B AG^FG ABcB  | 
w:   |   | 
A4 G^F{d}c2 BAAG GFF6  | |


